Newaita-dark/devices/48/media-memory-sd.svg

<svg height="48pt" viewBox="0 0 48 48" width="48pt" xmlns="http://www.w3.org/2000/svg" xmlns:xlink="http://www.w3.org/1999/xlink"><linearGradient id="a" gradientUnits="userSpaceOnUse" x1="23.814782" x2="23.814782" y1="41.9733075" y2="43.95787331253"><stop offset="0" stop-opacity=".27451"/><stop offset="1" stop-opacity="0"/></linearGradient><linearGradient id="b"><stop offset="0" stop-opacity=".313725"/><stop offset=".222222" stop-opacity=".27451"/><stop offset="1" stop-opacity="0"/></linearGradient><radialGradient id="c" cx="450.90894" cy="189.57936" gradientTransform="matrix(.00000026 -.117199 -.210958 -.00000015 75.715265 95.315406)" gradientUnits="userSpaceOnUse" r="21.166656" xlink:href="#b"/><radialGradient id="d" cx="450.90894" cy="189.57936" gradientTransform="matrix(-.00000026 .117199 .210958 .00000015 -28.085718 -11.368814)" gradientUnits="userSpaceOnUse" r="21.166656" xlink:href="#b"/><radialGradient id="e" cx="450.90894" cy="189.57936" gradientTransform="matrix(-.00000026 -.117199 .210958 -.00000015 -28.085718 95.315406)" gradientUnits="userSpaceOnUse" r="21.166656" xlink:href="#b"/><radialGradient id="f" cx="450.90894" cy="189.57936" gradientTransform="matrix(.00000026 .117199 -.210958 .00000015 75.715263 -11.368815)" gradientUnits="userSpaceOnUse" r="21.166656" xlink:href="#b"/><linearGradient id="g" gradientUnits="userSpaceOnUse" x1="23.814786" x2="23.814786" y1="46.02003212506" y2=".375025"><stop offset="0" stop-color="#424242"/><stop offset="1" stop-color="#616161"/></linearGradient><linearGradient id="h" gradientUnits="userSpaceOnUse" x1="23.814786" x2="23.814786" y1="42.0509015" y2="4.34415668747"><stop offset="0" stop-color="#26a69a"/><stop offset="1" stop-color="#4db6ac"/></linearGradient><linearGradient id="i" gradientUnits="userSpaceOnUse" x1="23.814816" x2="23.814816" y1="42.05096669922" y2="7.32102421851"><stop offset="0" stop-color="#f44336"/><stop offset="1" stop-color="#ef5350"/></linearGradient><path d="m11.410156 42.011719h24.808594v2.023437h-24.808594zm0 0" fill="url(#a)"/><path d="m36.21875 41.972656h3.96875v-1.984375h-3.96875zm0 0" fill="url(#c)"/><path d="m11.410156 41.972656h-3.96875v1.984375h3.96875zm0 0" fill="url(#d)"/><path d="m11.410156 41.972656h-3.96875v-1.984375h3.96875zm0 0" fill="url(#e)"/><path d="m36.21875 41.972656h3.96875v1.984375h-3.96875zm0 0" fill="url(#f)"/><path d="m17.859375 4.355469c-.523437 0-1.023437.207031-1.394531.578125l-7.9375 7.9375c-.371094.371094-.578125.871094-.578125 1.394531v.992187h.980469c.550781 0 .992187.445313.992187.992188v2.976562c0 .550782-.441406.992188-.992187.992188h-.980469v19.847656c0 1.089844.882812 1.976563 1.972656 1.976563h27.785156c1.089844 0 1.976563-.886719 1.976563-1.976563v-13.890625h-.984375c-.550781 0-.992188-.445312-.992188-.992187v-10.917969c0-.546875.441407-.992187.992188-.992187h.984375v-6.945313c0-1.089844-.886719-1.972656-1.976563-1.972656zm0 0" fill="url(#g)"/><path d="m7.949219 39.398438v.667968c0 1.089844.882812 1.976563 1.972656 1.976563h27.785156c1.089844 0 1.976563-.886719 1.976563-1.976563v-.667968c0 1.089843-.886719 1.972656-1.976563 1.972656h-27.785156c-1.089844 0-1.972656-.882813-1.972656-1.972656zm0 0" fill-opacity=".235294"/><path d="m19.84375 7.332031c-.523438 0-1.023438.207031-1.394531.578125l-5.953125 5.953125c-.371094.371094-.578125.871094-.578125 1.394531v21.832032c0 1.089844.882812 1.976562 1.972656 1.976562h19.847656c1.089844 0 1.972657-.886718 1.972657-1.976562v-27.785156c0-1.089844-.882813-1.972657-1.972657-1.972657zm0 0" fill="url(#h)"/><path d="m19.84375 7.332031c-.523438 0-1.023438.207031-1.394531.578125l-5.953125 5.953125c-.371094.371094-.578125.871094-.578125 1.394531v2.976563h23.792969v-8.929687c0-1.089844-.882813-1.972657-1.972657-1.972657zm0 0" fill="url(#i)"/><path d="m211.646455-136.799134c-5.5828 0-10.915624 2.208122-14.873579 6.166077l-63.493937 63.493937c-3.957955 3.957955-6.166078 9.290779-6.166078 14.87358v232.852763c0 11.62389 9.415768 21.08132 21.039658 21.08132h211.688118c11.62389 0 21.039657-9.45743 21.039657-21.08132v-296.3467c0-11.62389-9.415767-21.039657-21.039657-21.039657zm0 0" fill="none" stroke="#212121" stroke-linecap="round" stroke-linejoin="round" stroke-width="3" transform="matrix(.093759 0 0 .093759 0 20.158175)"/><path d="m17.859375 4.355469c-.523437 0-1.023437.207031-1.394531.578125l-7.9375 7.9375c-.371094.371094-.578125.871094-.578125 1.394531v.496094c0-.523438.207031-1.023438.578125-1.394531l7.9375-7.9375c.371094-.371094.871094-.578126 1.394531-.578126h19.847656c1.089844 0 1.976563.882813 1.976563 1.972657v-.496094c0-1.089844-.886719-1.972656-1.976563-1.972656zm-7.9375 14.871093c0 .550782-.441406.992188-.992187.992188h-.980469v.5h.980469c.550781 0 .992187-.445312.992187-.996094zm27.785156 5.957032v.496094c0 .546874.441407.992187.992188.992187h.984375v-.496094h-.984375c-.550781 0-.992188-.445312-.992188-.992187zm0 0" fill="#fff" fill-opacity=".313725"/><g fill="none" stroke="#212121" stroke-linecap="round" stroke-linejoin="round" stroke-width="11.338583" transform="scale(.0248071)"><path d="m719.931259 175.573787c-21.100347 0-41.255903 8.34566-56.215105 23.304861l-319.969448 319.969449c-14.959202 14.959201-23.304862 35.114757-23.304862 56.215105v39.996181h39.523786c22.202604 0 39.996181 17.951042 39.996181 39.996181v119.988543c0 22.202604-17.793577 39.996181-39.996181 39.996181h-39.523786v800.081087c0 43.932813 35.587154 79.677431 79.519967 79.677431h1120.050535c43.932813 0 79.677431-35.744618 79.677431-79.677431v-559.946535h-39.68125c-22.202605 0-39.996181-17.951042-39.996181-39.996181v-440.115457c0-22.045139 17.793576-39.996181 39.996181-39.996181h39.68125v-279.973268c0-43.932813-35.744618-79.519966-79.677431-79.519966zm0 0"/><path d="m799.923621 295.56233c-21.100347 0-41.255903 8.34566-56.215105 23.304862l-239.977086 239.977086c-14.959202 14.959201-23.304861 35.114757-23.304861 56.215105v119.988543h959.121019v-359.96563c0-43.932813-35.587154-79.519966-79.519967-79.519966zm0 0"/></g></svg>

<?xml version="1.0" encoding="UTF-8"?>
<svg xmlns="http://www.w3.org/2000/svg" xmlns:xlink="http://www.w3.org/1999/xlink" width="48pt" height="48pt" viewBox="0 0 48 48" version="1.1">
<defs>
<linearGradient id="linear0" gradientUnits="userSpaceOnUse" x1="254" y1="233.5" x2="254" y2="254.66667" gradientTransform="matrix(0.093759,0,0,0.093759,-0.00000375036,20.080581)">
<stop offset="0" style="stop-color:rgb(0%,0%,0%);stop-opacity:0.27451;"/>
<stop offset="1" style="stop-color:rgb(0%,0%,0%);stop-opacity:0;"/>
</linearGradient>
<radialGradient id="radial0" gradientUnits="userSpaceOnUse" cx="450.90894" cy="189.57936" fx="450.90894" fy="189.57936" r="21.166656" gradientTransform="matrix(0.000000261256,-0.117199,-0.210958,-0.000000152308,75.715265,95.315406)">
<stop offset="0" style="stop-color:rgb(0%,0%,0%);stop-opacity:0.313725;"/>
<stop offset="0.222222" style="stop-color:rgb(0%,0%,0%);stop-opacity:0.27451;"/>
<stop offset="1" style="stop-color:rgb(0%,0%,0%);stop-opacity:0;"/>
</radialGradient>
<radialGradient id="radial1" gradientUnits="userSpaceOnUse" cx="450.90894" cy="189.57936" fx="450.90894" fy="189.57936" r="21.166656" gradientTransform="matrix(-0.000000261256,0.117199,0.210958,0.000000152308,-28.085718,-11.368814)">
<stop offset="0" style="stop-color:rgb(0%,0%,0%);stop-opacity:0.313725;"/>
<stop offset="0.222222" style="stop-color:rgb(0%,0%,0%);stop-opacity:0.27451;"/>
<stop offset="1" style="stop-color:rgb(0%,0%,0%);stop-opacity:0;"/>
</radialGradient>
<radialGradient id="radial2" gradientUnits="userSpaceOnUse" cx="450.90894" cy="189.57936" fx="450.90894" fy="189.57936" r="21.166656" gradientTransform="matrix(-0.000000261256,-0.117199,0.210958,-0.000000152308,-28.085718,95.315406)">
<stop offset="0" style="stop-color:rgb(0%,0%,0%);stop-opacity:0.313725;"/>
<stop offset="0.222222" style="stop-color:rgb(0%,0%,0%);stop-opacity:0.27451;"/>
<stop offset="1" style="stop-color:rgb(0%,0%,0%);stop-opacity:0;"/>
</radialGradient>
<radialGradient id="radial3" gradientUnits="userSpaceOnUse" cx="450.90894" cy="189.57936" fx="450.90894" fy="189.57936" r="21.166656" gradientTransform="matrix(0.000000261256,0.117199,-0.210958,0.000000152308,75.715263,-11.368815)">
<stop offset="0" style="stop-color:rgb(0%,0%,0%);stop-opacity:0.313725;"/>
<stop offset="0.222222" style="stop-color:rgb(0%,0%,0%);stop-opacity:0.27451;"/>
<stop offset="1" style="stop-color:rgb(0%,0%,0%);stop-opacity:0;"/>
</radialGradient>
<linearGradient id="linear1" gradientUnits="userSpaceOnUse" x1="254" y1="275.83334" x2="254" y2="-211" gradientTransform="matrix(0.093759,0,0,0.093759,0,20.158174)">
<stop offset="0" style="stop-color:rgb(25.882353%,25.882353%,25.882353%);stop-opacity:1;"/>
<stop offset="1" style="stop-color:rgb(38.039216%,38.039216%,38.039216%);stop-opacity:1;"/>
</linearGradient>
<linearGradient id="linear2" gradientUnits="userSpaceOnUse" x1="254" y1="233.5" x2="254" y2="-168.66667" gradientTransform="matrix(0.093759,0,0,0.093759,0,20.158175)">
<stop offset="0" style="stop-color:rgb(14.901961%,65.098039%,60.392157%);stop-opacity:1;"/>
<stop offset="1" style="stop-color:rgb(30.196078%,71.372549%,67.45098%);stop-opacity:1;"/>
</linearGradient>
<linearGradient id="linear3" gradientUnits="userSpaceOnUse" x1="960" y1="1695.1182" x2="960" y2="295.1181" gradientTransform="matrix(0.0248071,0,0,0.0248071,0,0)">
<stop offset="0" style="stop-color:rgb(95.686275%,26.27451%,21.176471%);stop-opacity:1;"/>
<stop offset="1" style="stop-color:rgb(93.72549%,32.54902%,31.372549%);stop-opacity:1;"/>
</linearGradient>
</defs>
<g id="surface1">
<path style=" stroke:none;fill-rule:nonzero;fill:url(#linear0);" d="M 11.410156 42.011719 L 36.21875 42.011719 L 36.21875 44.035156 L 11.410156 44.035156 Z M 11.410156 42.011719 "/>
<path style=" stroke:none;fill-rule:nonzero;fill:url(#radial0);" d="M 36.21875 41.972656 L 40.1875 41.972656 L 40.1875 39.988281 L 36.21875 39.988281 Z M 36.21875 41.972656 "/>
<path style=" stroke:none;fill-rule:nonzero;fill:url(#radial1);" d="M 11.410156 41.972656 L 7.441406 41.972656 L 7.441406 43.957031 L 11.410156 43.957031 Z M 11.410156 41.972656 "/>
<path style=" stroke:none;fill-rule:nonzero;fill:url(#radial2);" d="M 11.410156 41.972656 L 7.441406 41.972656 L 7.441406 39.988281 L 11.410156 39.988281 Z M 11.410156 41.972656 "/>
<path style=" stroke:none;fill-rule:nonzero;fill:url(#radial3);" d="M 36.21875 41.972656 L 40.1875 41.972656 L 40.1875 43.957031 L 36.21875 43.957031 Z M 36.21875 41.972656 "/>
<path style=" stroke:none;fill-rule:nonzero;fill:url(#linear1);" d="M 17.859375 4.355469 C 17.335938 4.355469 16.835938 4.5625 16.464844 4.933594 L 8.527344 12.871094 C 8.15625 13.242188 7.949219 13.742188 7.949219 14.265625 L 7.949219 15.257812 L 8.929688 15.257812 C 9.480469 15.257812 9.921875 15.703125 9.921875 16.25 L 9.921875 19.226562 C 9.921875 19.777344 9.480469 20.21875 8.929688 20.21875 L 7.949219 20.21875 L 7.949219 40.066406 C 7.949219 41.15625 8.832031 42.042969 9.921875 42.042969 L 37.707031 42.042969 C 38.796875 42.042969 39.683594 41.15625 39.683594 40.066406 L 39.683594 26.175781 L 38.699219 26.175781 C 38.148438 26.175781 37.707031 25.730469 37.707031 25.183594 L 37.707031 14.265625 C 37.707031 13.71875 38.148438 13.273438 38.699219 13.273438 L 39.683594 13.273438 L 39.683594 6.328125 C 39.683594 5.238281 38.796875 4.355469 37.707031 4.355469 Z M 17.859375 4.355469 "/>
<path style=" stroke:none;fill-rule:nonzero;fill:rgb(0%,0%,0%);fill-opacity:0.235294;" d="M 7.949219 39.398438 L 7.949219 40.066406 C 7.949219 41.15625 8.832031 42.042969 9.921875 42.042969 L 37.707031 42.042969 C 38.796875 42.042969 39.683594 41.15625 39.683594 40.066406 L 39.683594 39.398438 C 39.683594 40.488281 38.796875 41.371094 37.707031 41.371094 L 9.921875 41.371094 C 8.832031 41.371094 7.949219 40.488281 7.949219 39.398438 Z M 7.949219 39.398438 "/>
<path style=" stroke:none;fill-rule:nonzero;fill:url(#linear2);" d="M 19.84375 7.332031 C 19.320312 7.332031 18.820312 7.539062 18.449219 7.910156 L 12.496094 13.863281 C 12.125 14.234375 11.917969 14.734375 11.917969 15.257812 L 11.917969 37.089844 C 11.917969 38.179688 12.800781 39.066406 13.890625 39.066406 L 33.738281 39.066406 C 34.828125 39.066406 35.710938 38.179688 35.710938 37.089844 L 35.710938 9.304688 C 35.710938 8.214844 34.828125 7.332031 33.738281 7.332031 Z M 19.84375 7.332031 "/>
<path style=" stroke:none;fill-rule:nonzero;fill:url(#linear3);" d="M 19.84375 7.332031 C 19.320312 7.332031 18.820312 7.539062 18.449219 7.910156 L 12.496094 13.863281 C 12.125 14.234375 11.917969 14.734375 11.917969 15.257812 L 11.917969 18.234375 L 35.710938 18.234375 L 35.710938 9.304688 C 35.710938 8.214844 34.828125 7.332031 33.738281 7.332031 Z M 19.84375 7.332031 "/>
<path style="fill:none;stroke-width:3;stroke-linecap:round;stroke-linejoin:round;stroke:rgb(12.941176%,12.941176%,12.941176%);stroke-opacity:1;stroke-miterlimit:4;" d="M 211.646455 -136.799134 C 206.063655 -136.799134 200.730831 -134.591012 196.772876 -130.633057 L 133.278939 -67.13912 C 129.320984 -63.181165 127.112861 -57.848341 127.112861 -52.26554 L 127.112861 180.587223 C 127.112861 192.211113 136.528629 201.668543 148.152519 201.668543 L 359.840637 201.668543 C 371.464527 201.668543 380.880294 192.211113 380.880294 180.587223 L 380.880294 -115.759477 C 380.880294 -127.383367 371.464527 -136.799134 359.840637 -136.799134 Z M 211.646455 -136.799134 " transform="matrix(0.093759,0,0,0.093759,0,20.158175)"/>
<path style=" stroke:none;fill-rule:nonzero;fill:rgb(100%,100%,100%);fill-opacity:0.313725;" d="M 17.859375 4.355469 C 17.335938 4.355469 16.835938 4.5625 16.464844 4.933594 L 8.527344 12.871094 C 8.15625 13.242188 7.949219 13.742188 7.949219 14.265625 L 7.949219 14.761719 C 7.949219 14.238281 8.15625 13.738281 8.527344 13.367188 L 16.464844 5.429688 C 16.835938 5.058594 17.335938 4.851562 17.859375 4.851562 L 37.707031 4.851562 C 38.796875 4.851562 39.683594 5.734375 39.683594 6.824219 L 39.683594 6.328125 C 39.683594 5.238281 38.796875 4.355469 37.707031 4.355469 Z M 9.921875 19.226562 C 9.921875 19.777344 9.480469 20.21875 8.929688 20.21875 L 7.949219 20.21875 L 7.949219 20.71875 L 8.929688 20.71875 C 9.480469 20.71875 9.921875 20.273438 9.921875 19.722656 Z M 37.707031 25.183594 L 37.707031 25.679688 C 37.707031 26.226562 38.148438 26.671875 38.699219 26.671875 L 39.683594 26.671875 L 39.683594 26.175781 L 38.699219 26.175781 C 38.148438 26.175781 37.707031 25.730469 37.707031 25.183594 Z M 37.707031 25.183594 "/>
<path style="fill:none;stroke-width:11.338583;stroke-linecap:round;stroke-linejoin:round;stroke:rgb(12.941176%,12.941176%,12.941176%);stroke-opacity:1;stroke-miterlimit:4;" d="M 719.931259 175.573787 C 698.830912 175.573787 678.675356 183.919447 663.716154 198.878648 L 343.746706 518.848097 C 328.787504 533.807298 320.441844 553.962854 320.441844 575.063202 L 320.441844 615.059383 L 359.96563 615.059383 C 382.168234 615.059383 399.961811 633.010425 399.961811 655.055564 L 399.961811 775.044107 C 399.961811 797.246711 382.168234 815.040288 359.96563 815.040288 L 320.441844 815.040288 L 320.441844 1615.121375 C 320.441844 1659.054188 356.028998 1694.798806 399.961811 1694.798806 L 1520.012346 1694.798806 C 1563.945159 1694.798806 1599.689777 1659.054188 1599.689777 1615.121375 L 1599.689777 1055.17484 L 1560.008527 1055.17484 C 1537.805922 1055.17484 1520.012346 1037.223798 1520.012346 1015.178659 L 1520.012346 575.063202 C 1520.012346 553.018063 1537.805922 535.067021 1560.008527 535.067021 L 1599.689777 535.067021 L 1599.689777 255.093753 C 1599.689777 211.16094 1563.945159 175.573787 1520.012346 175.573787 Z M 719.931259 175.573787 " transform="matrix(0.0248071,0,0,0.0248071,0,0)"/>
<path style="fill:none;stroke-width:11.338583;stroke-linecap:round;stroke-linejoin:round;stroke:rgb(12.941176%,12.941176%,12.941176%);stroke-opacity:1;stroke-miterlimit:4;" d="M 799.923621 295.56233 C 778.823274 295.56233 758.667718 303.90799 743.708516 318.867192 L 503.73143 558.844278 C 488.772228 573.803479 480.426569 593.959035 480.426569 615.059383 L 480.426569 735.047926 L 1439.547588 735.047926 L 1439.547588 375.082296 C 1439.547588 331.149483 1403.960434 295.56233 1360.027621 295.56233 Z M 799.923621 295.56233 " transform="matrix(0.0248071,0,0,0.0248071,0,0)"/>
</g>
</svg>
